X: 31
T:Junior Crehan's (1)
M:4/4
L:1/8
C:Junior Crehan
S:Doug Patience, Scarriff (fiddle)
R:Hornpipe
Z:Bernie Stocks
K:G
B2GB AGEG | DGGF GABd | eg{a}ge dBGA | BAAG A2GA | B2GB AGEG | 
DGGF GABd | eg{a}ge dBGB |1 A2G2 G3A :|2 A2G2 G2(3Bcd || edgd ed(3Bcd | 
eg{a}ge d2(3Bcd | eg{a}ge dBGA | B2A2 A2(3Bcd | edgd ed(3Bcd | eg{a}ge d2(3Bcd |
eg{a}ge dBAc |  B2G2 G2(3Bcd | edgd ed(3Bcd | eg{a}ge d2(3Bcd | eg{a}ge dBGA | 
B2A2 A2GA | B2GB AGEG | DGGF GABd | eg{a}ge dBGB | A2G2 G3A ||
<end>
<start>
